X:8
T:Johnboy
C:Bob Massie
H:1999
N:JohnBoy McIver - Black Isle farmer
M:4/4
L:1/4
Q:1/4=160     %Tempo
K:A
ed ce Ac EA |FA EA ag fe |dc df Bd GB |EG BG ba gf |
ed ce Ac EA |FA EA ag fe |dc de fa gf |ed c2 A2 A2 |
ed cA EA CE |AB cA ag fe |dc dB FB DF |GB dB ba gf |
ed cA EA CE |Ac ea ce Ac |BA de fa gf |ed c2 A2 A2 |]
